X:26
T: Duncan Davison
N: HA026
O: Europa, Mitteleuropa, Deutschland
N: Vorschläge
M: 2/2
L: 1/16
K: C
C | C3EG3AG3EG3
A | C3Ec3AG3ED3
E | C3EG3AG3EG3
e | d3cd2e2c3cc3
f | e3dcdefg2e2d2
c2 | B2G2d2G2B3cd2
f2 | e3dcdefg2e2d2
c2 | G3cd3ec3cc3

